lib/healthicons/icons/solid/specialties/gastroenterology.svg

<svg fill="none" height="48" viewBox="0 0 48 48" width="48" xmlns="http://www.w3.org/2000/svg"><path clip-rule="evenodd" d="m17.3163 10.7392v.0013c.0337 3.6077.5007 5.3762 1.4179 6.3213.8056.8302 2.1637 1.232 4.7141 1.3074.2019-2.0358 1.0138-3.6602 2.2069-4.8175 1.3731-1.3319 3.1915-1.9865 4.9913-1.9865 1.7999 0 3.6182.6546 4.9914 1.9865 1.3849 1.3433 2.2561 3.316 2.2561 5.8307v8.3322c0 2.3547-.391 4.8461-1.6023 6.78-1.2566 2.0061-3.3353 3.3097-6.4095 3.3097-3.1633 0-5.3592-1.8827-7.2995-3.5568l-.0618-.0534c-1.9755-1.7046-3.7518-3.2375-6.2707-3.5855-1.0578.0111-1.793.2947-2.3214.6817-.5485.4018-.9422.9654-1.2207 1.6172-.5693 1.3324-.5881 2.8677-.5606 3.5274.0055.1308.0083 1.5481.0103 2.88.0009.6777.0017 1.3488.0021 1.8504l.0007.8331-.9684.0016h27.8078c1.6569 0 3-1.3431 3-3v-30c0-1.65685-1.3431-3-3-3h-21.6857l.0018 4.6698.0001.05v.015zm-8.3163 31.2608h1.1606l-.0007-.8328c-.0004-.5015-.0012-1.1722-.0021-1.8494-.001-.6773-.0023-1.3606-.0038-1.8874-.0008-.2636-.0016-.4872-.0026-.6511-.0004-.0821-.0009-.1482-.0014-.1964l-.0007-.06-.0001-.0058c0-.0007 0-.0003.0001.0011-.0312-.7479-.0281-2.6467.7197-4.3966.38-.8893.9687-1.7788 1.878-2.4448.919-.6731 2.0984-1.0685 3.5672-1.0685.3948 0 .7599.0089 1.1069.0173.6319.0153 1.2039.0292 1.7871-.0145.8513-.0638 1.5204-.2472 2.0646-.6551 1.0265-.7694 2.0015-2.6548 2.1153-7.587-2.6478-.0756-4.7131-.4964-6.0892-1.9143-1.5299-1.5765-1.9492-4.1242-1.9825-7.6955-.0014-.1413-.002-3.93163-.0022-4.7592h-6.3142c-1.65685 0-3 1.34315-3 3v30c0 1.6569 1.34315 3 3 3zm16.0307-17.5336c2.3953-1.1575 4.2392-.2213 5.9793.6623 1.5998.8123 3.1119 1.5801 4.884.635v-6.3813c0-2.03-.6907-3.466-1.6486-4.3951-.9696-.9405-2.275-1.4221-3.5989-1.4221-1.3238 0-2.6292.4816-3.5988 1.4221-.9579.9291-1.6486 2.3651-1.6486 4.3951 0 2.0109-.1233 3.6896-.3684 5.084z" fill="#333" fill-rule="evenodd"/></svg>

<svg width="48" height="48" viewBox="0 0 48 48" fill="none" xmlns="http://www.w3.org/2000/svg">
<path fill-rule="evenodd" clip-rule="evenodd" d="M17.3163 10.7392L17.3163 10.7405C17.35 14.3482 17.817 16.1167 18.7342 17.0618C19.5398 17.892 20.8979 18.2938 23.4483 18.3692C23.6502 16.3334 24.4621 14.709 25.6552 13.5517C27.0283 12.2198 28.8467 11.5652 30.6465 11.5652C32.4464 11.5652 34.2647 12.2198 35.6379 13.5517C37.0228 14.895 37.894 16.8677 37.894 19.3824V27.7146C37.894 30.0693 37.503 32.5607 36.2917 34.4946C35.0351 36.5007 32.9564 37.8043 29.8822 37.8043C26.7189 37.8043 24.523 35.9216 22.5827 34.2475L22.5209 34.1941C20.5454 32.4895 18.7691 30.9566 16.2502 30.6086C15.1924 30.6197 14.4572 30.9033 13.9288 31.2903C13.3803 31.6921 12.9866 32.2557 12.7081 32.9075C12.1388 34.2399 12.12 35.7752 12.1475 36.4349C12.153 36.5657 12.1558 37.983 12.1578 39.3149C12.1587 39.9926 12.1595 40.6637 12.1599 41.1653L12.1606 41.9984L11.1922 42H39C40.6569 42 42 40.6569 42 39V9C42 7.34315 40.6569 6 39 6H17.3143L17.3161 10.6698L17.3162 10.7198L17.3162 10.7348L17.3163 10.7392ZM9 42H10.1606L10.1599 41.1672C10.1595 40.6657 10.1587 39.995 10.1578 39.3178C10.1568 38.6405 10.1555 37.9572 10.154 37.4304C10.1532 37.1668 10.1524 36.9432 10.1514 36.7793C10.151 36.6972 10.1505 36.6311 10.15 36.5829L10.1493 36.5229L10.1492 36.5171C10.1492 36.5164 10.1492 36.5168 10.1493 36.5182C10.1181 35.7703 10.1212 33.8715 10.869 32.1216C11.249 31.2323 11.8377 30.3428 12.747 29.6768C13.666 29.0037 14.8454 28.6083 16.3142 28.6083C16.709 28.6083 17.0741 28.6172 17.4211 28.6256C18.053 28.6409 18.625 28.6548 19.2082 28.6111C20.0595 28.5473 20.7286 28.3639 21.2728 27.956C22.2993 27.1866 23.2743 25.3012 23.3881 20.369C20.7403 20.2934 18.675 19.8726 17.2989 18.4547C15.769 16.8782 15.3497 14.3305 15.3164 10.7592C15.315 10.6179 15.3144 6.82757 15.3142 6H9C7.34315 6 6 7.34315 6 9V39C6 40.6569 7.34315 42 9 42ZM25.0307 24.4664C27.426 23.3089 29.2699 24.2451 31.01 25.1287C32.6098 25.941 34.1219 26.7088 35.894 25.7637V19.3824C35.894 17.3524 35.2033 15.9164 34.2454 14.9873C33.2758 14.0468 31.9704 13.5652 30.6465 13.5652C29.3227 13.5652 28.0173 14.0468 27.0477 14.9873C26.0898 15.9164 25.3991 17.3524 25.3991 19.3824C25.3991 21.3933 25.2758 23.072 25.0307 24.4664Z" fill="#333333"/>
</svg>
